packages/axiom-components/src/Pictogram/svgs/twitter-verified.svg

<?xml version="1.0" encoding="UTF-8"?>
<svg width="16px" height="16px" viewBox="0 0 16 16" version="1.1" xmlns="http://www.w3.org/2000/svg" xmlns:xlink="http://www.w3.org/1999/xlink">
    <!-- Generator: Sketch 46.2 (44496) - http://www.bohemiancoding.com/sketch -->
    <title>Spline Chart</title>
    <desc>Created with Sketch.</desc>
    <defs></defs>
    <g id="Axiom-Icons" stroke="none" stroke-width="1" fill="none" fill-rule="evenodd">
      <g fill="none" fill-rule="evenodd">
        <path fill="#000" d="M11.2896,6.6221 L11.2756,6.6221 L7.4106,10.5011 L7.3966,10.5011 C7.3406,10.5701 7.2566,10.6131 7.1716,10.6551 C7.0866,10.6981 6.9746,10.7121 6.9046,10.7121 C6.7916,10.7121 6.7226,10.6981 6.6236,10.6551 C6.5256,10.6131 6.4546,10.5701 6.3836,10.5011 L4.7126,8.8141 C4.5576,8.6881 4.5016,8.4911 4.5016,8.3091 C4.4866,8.1251 4.5846,7.9571 4.6976,7.8021 C4.8666,7.6761 5.0216,7.5911 5.2176,7.5911 C5.4146,7.5911 5.5696,7.6761 5.7236,7.8021 L6.8906,8.9821 L10.2776,5.6091 C10.3896,5.4551 10.6006,5.3981 10.7836,5.3981 C10.9526,5.3981 11.1496,5.4551 11.2756,5.6091 C11.4296,5.7361 11.4866,5.9331 11.5006,6.1011 C11.5006,6.2841 11.4016,6.4681 11.2896,6.6221 M14.6056,6.8901 C14.3396,6.4681 14.0026,6.1431 13.5516,5.9331 C13.5946,5.8631 13.6226,5.7781 13.6366,5.7081 L13.6796,5.4691 L13.7216,5.2301 C13.7216,5.1601 13.7216,5.0751 13.7346,4.9921 C13.7216,4.2611 13.4396,3.6001 12.9766,3.1081 C12.5126,2.6161 11.8946,2.3201 11.1776,2.3201 C11.0216,2.3201 10.8686,2.3341 10.7276,2.3631 C10.5866,2.3921 10.4186,2.4331 10.2926,2.4891 C10.0666,2.0541 9.7726,1.6741 9.3786,1.4081 C8.9706,1.1411 8.5076,1.0001 7.9876,1.0001 C7.4946,1.0001 7.0166,1.1411 6.6376,1.4081 C6.2436,1.6741 5.8926,2.0541 5.7096,2.4891 C5.5556,2.4331 5.4286,2.3921 5.2746,2.3631 C5.1046,2.3341 4.9786,2.3201 4.8106,2.3201 C4.1216,2.3201 3.4616,2.6161 3.0106,3.1081 C2.5616,3.6001 2.2656,4.2611 2.2806,4.9921 C2.2656,5.0751 2.2656,5.1601 2.2806,5.2301 C2.2946,5.3141 2.2946,5.3981 2.3086,5.4691 C2.3226,5.5541 2.3366,5.6391 2.3646,5.7081 L2.4206,5.9331 C2.0136,6.1431 1.6336,6.4681 1.3946,6.8901 C1.1566,7.3101 0.9876,7.8021 1.0006,8.3221 C0.9876,8.8281 1.1286,9.2921 1.3526,9.6851 C1.5776,10.0941 1.9286,10.4311 2.2806,10.6551 C2.2946,10.6841 2.2946,10.7121 2.2806,10.7391 C2.2656,10.7681 2.2656,10.7971 2.2806,10.8241 L2.2806,10.9091 C2.2656,10.9361 2.2656,10.9651 2.2806,10.9921 C2.2656,11.7381 2.5616,12.3981 3.0106,12.8761 C3.4616,13.3541 4.1216,13.6631 4.8106,13.6631 C4.9786,13.6631 5.1046,13.6361 5.2746,13.6061 C5.4286,13.5791 5.5556,13.5511 5.7096,13.4941 C5.8926,13.9431 6.2436,14.3101 6.6376,14.5761 C7.0166,14.8441 7.4946,14.9981 7.9876,14.9981 C8.5076,14.9981 8.9706,14.8441 9.3786,14.5761 C9.7726,14.3101 10.0666,13.9431 10.2926,13.4941 C10.4186,13.5511 10.5866,13.5791 10.7276,13.6061 C10.8686,13.6361 11.0216,13.6631 11.1776,13.6631 C11.8946,13.6631 12.5126,13.3541 12.9766,12.8761 C13.4396,12.3981 13.7216,11.7381 13.7346,10.9921 C13.7216,10.9651 13.7216,10.9361 13.7346,10.9091 C13.7346,10.8801 13.7346,10.8521 13.7216,10.8241 C13.7066,10.7971 13.7066,10.7681 13.7216,10.7391 C13.7216,10.7121 13.7066,10.6841 13.6936,10.6551 C14.1016,10.4311 14.4106,10.0941 14.6486,9.6851 C14.8736,9.2921 14.9866,8.8281 14.9996,8.3221 C14.9866,7.8021 14.8736,7.3101 14.6056,6.8901"/>
        <path fill="#FFF" d="M14.9999,8.3226 C14.9859,7.8016 14.8739,7.3106 14.6059,6.8896 C14.3399,6.4676 14.0029,6.1436 13.5519,5.9326 C13.5949,5.8636 13.6229,5.7786 13.6369,5.7076 L13.6789,5.4686 L13.7209,5.2306 C13.7209,5.1606 13.7209,5.0756 13.7349,4.9926 C13.7209,4.2606 13.4399,3.5996 12.9759,3.1086 C12.5129,2.6166 11.8949,2.3206 11.1769,2.3206 C11.0219,2.3206 10.8679,2.3336 10.7279,2.3636 C10.5869,2.3916 10.4189,2.4326 10.2929,2.4896 C10.0659,2.0536 9.7729,1.6736 9.3779,1.4086 C8.9709,1.1406 8.5069,0.9996 7.9869,0.9996 C7.4949,0.9996 7.0169,1.1406 6.6379,1.4086 C6.2439,1.6736 5.8929,2.0536 5.7099,2.4896 C5.5559,2.4326 5.4279,2.3916 5.2739,2.3636 C5.1049,2.3336 4.9789,2.3206 4.8109,2.3206 C4.1219,2.3206 3.4609,2.6166 3.0109,3.1086 C2.5619,3.5996 2.2659,4.2606 2.2809,4.9926 C2.2659,5.0756 2.2659,5.1606 2.2809,5.2306 C2.2949,5.3156 2.2949,5.3986 2.3089,5.4686 C2.3229,5.5536 2.3359,5.6376 2.3639,5.7076 L2.4209,5.9326 C2.0129,6.1436 1.6329,6.4676 1.3949,6.8896 C1.1559,7.3106 0.9869,7.8016 1.0009,8.3226 C0.9869,8.8286 1.1279,9.2916 1.3529,9.6856 C1.5779,10.0936 1.9289,10.4306 2.2809,10.6556 C2.2949,10.6846 2.2949,10.7116 2.2809,10.7396 C2.2659,10.7676 2.2659,10.7966 2.2809,10.8246 L2.2809,10.9096 C2.2659,10.9366 2.2659,10.9646 2.2809,10.9926 C2.2659,11.7386 2.5619,12.3986 3.0109,12.8756 C3.4609,13.3546 4.1219,13.6636 4.8109,13.6636 C4.9789,13.6636 5.1049,13.6356 5.2739,13.6066 C5.4279,13.5796 5.5559,13.5506 5.7099,13.4946 C5.8929,13.9436 6.2439,14.3096 6.6379,14.5766 C7.0169,14.8436 7.4949,14.9976 7.9869,14.9976 C8.5069,14.9976 8.9709,14.8436 9.3779,14.5766 C9.7729,14.3096 10.0659,13.9436 10.2929,13.4946 C10.4189,13.5506 10.5869,13.5796 10.7279,13.6066 C10.8679,13.6356 11.0219,13.6636 11.1769,13.6636 C11.8949,13.6636 12.5129,13.3546 12.9759,12.8756 C13.4399,12.3986 13.7209,11.7386 13.7349,10.9926 C13.7209,10.9646 13.7209,10.9366 13.7349,10.9096 C13.7349,10.8796 13.7349,10.8516 13.7209,10.8246 C13.7069,10.7966 13.7069,10.7676 13.7209,10.7396 C13.7209,10.7116 13.7069,10.6846 13.6929,10.6556 C14.1009,10.4306 14.4099,10.0936 14.6489,9.6856 C14.8739,9.2916 14.9859,8.8286 14.9999,8.3226 Z M13.6949,13.5716 C13.0239,14.2636 12.1429,14.6636 11.1769,14.6636 C11.0329,14.6636 10.9009,14.6516 10.7579,14.6286 C10.5239,14.9336 10.2489,15.1946 9.9269,15.4126 C9.3439,15.7946 8.6899,15.9976 7.9869,15.9976 C7.2949,15.9976 6.6129,15.7836 6.0769,15.4046 C5.7519,15.1846 5.4639,14.9236 5.2299,14.6286 C5.2119,14.6316 5.1959,14.6336 5.1799,14.6366 C5.0549,14.6546 4.9379,14.6636 4.8109,14.6636 C3.8579,14.6636 2.9319,14.2496 2.2829,13.5616 C1.6719,12.9136 1.3089,12.0646 1.2819,11.1536 C0.9609,10.8736 0.6829,10.5416 0.4839,10.1806 C0.1569,9.6066 -0.0171,8.9636 0.0019,8.3486 C-0.0171,7.6706 0.1759,7.0126 0.5239,6.3966 C0.7229,6.0456 0.9889,5.7376 1.3019,5.4786 C1.2959,5.4146 1.2949,5.4026 1.2959,5.4046 C1.2669,5.2476 1.2619,5.0856 1.2799,4.9256 C1.2839,3.9956 1.6489,3.1156 2.2729,2.4326 C2.9169,1.7296 3.8469,1.3206 4.8109,1.3206 C4.9619,1.3206 5.0939,1.3296 5.2399,1.3476 C5.4729,1.0556 5.7529,0.7986 6.0609,0.5906 C6.6089,0.2036 7.2879,-0.0004 7.9869,-0.0004 C8.6959,-0.0004 9.3509,0.1936 9.9389,0.5796 C10.2479,0.7886 10.5159,1.0456 10.7489,1.3466 C10.8879,1.3296 11.0319,1.3206 11.1769,1.3206 C12.1549,1.3206 13.0409,1.7176 13.7039,2.4216 C14.3469,3.1046 14.7159,4.0076 14.7349,4.9726 L14.7219,5.1566 C14.7219,5.1536 14.7209,5.1726 14.7209,5.2306 L14.7059,5.4026 L14.6929,5.4796 C14.9839,5.7216 15.2349,6.0136 15.4509,6.3536 C15.8089,6.9176 15.9809,7.5706 15.9999,8.3496 C15.9809,9.0246 15.8239,9.6446 15.5179,10.1806 C15.2959,10.5596 15.0379,10.8786 14.7349,11.1416 C14.6789,12.0816 14.3139,12.9346 13.6949,13.5716 Z"/>
        <path fill="#FFF" d="M11.2896,6.6221 C11.4016,6.4681 11.5006,6.2841 11.5006,6.1011 C11.4866,5.9331 11.4296,5.7361 11.2756,5.6091 C11.1496,5.4551 10.9526,5.3981 10.7836,5.3981 C10.6006,5.3981 10.3896,5.4551 10.2776,5.6091 L6.8906,8.9821 L5.7236,7.8021 C5.5696,7.6761 5.4146,7.5911 5.2176,7.5911 C5.0216,7.5911 4.8666,7.6761 4.6976,7.8021 C4.5846,7.9571 4.4866,8.1251 4.5016,8.3091 C4.5016,8.4911 4.5576,8.6881 4.7126,8.8141 L6.3836,10.5011 C6.4546,10.5701 6.5256,10.6131 6.6236,10.6551 C6.7226,10.6981 6.7916,10.7121 6.9046,10.7121 C6.9746,10.7121 7.0866,10.6981 7.1716,10.6551 C7.2566,10.6131 7.3406,10.5701 7.3966,10.5011 L7.4106,10.5011 C7.3966,10.5011 7.3966,10.5011 7.4106,10.5011 C7.3966,10.5011 7.3966,10.5011 7.4106,10.5011 L11.2756,6.6221 L11.2896,6.6221 Z"/>
      </g>
    </g>
</svg>

<svg height="16" viewBox="0 0 16 16" width="16" xmlns="http://www.w3.org/2000/svg"><g fill="none" fill-rule="evenodd"><path d="m11.2896 6.6221h-.014l-3.865 3.879h-.014c-.056.069-.14.112-.225.154-.085.043-.197.057-.267.057-.113 0-.182-.014-.281-.057-.098-.042-.169-.085-.24-.154l-1.671-1.687c-.155-.126-.211-.323-.211-.505-.015-.184.083-.352.196-.507.169-.126.324-.211.52-.211.197 0 .352.085.506.211l1.167 1.18 3.387-3.373c.112-.154.323-.211.506-.211.169 0 .366.057.492.211.154.127.211.324.225.492 0 .183-.099.367-.211.521m3.316.268c-.266-.422-.603-.747-1.054-.957.043-.07.071-.155.085-.225l.043-.239.042-.239c0-.07 0-.155.013-.238-.013-.731-.295-1.392-.758-1.884-.464-.492-1.082-.788-1.799-.788-.156 0-.309.014-.45.043s-.309.07-.435.126c-.226-.435-.52-.815-.914-1.081-.408-.267-.871-.408-1.391-.408-.493 0-.971.141-1.35.408-.394.266-.745.646-.928 1.081-.154-.056-.281-.097-.435-.126-.17-.029-.296-.043-.464-.043-.689 0-1.349.296-1.8.788-.449.492-.745 1.153-.73 1.884-.015.083-.015.168 0 .238.014.084.014.168.028.239.014.085.028.17.056.239l.056.225c-.407.21-.787.535-1.026.957-.238.42-.407.912-.394 1.432-.013.506.128.97.352 1.363.225.409.576.746.928.97.014.029.014.057 0 .084-.015.029-.015.058 0 .085v.085c-.015.027-.015.056 0 .083-.015.746.281 1.406.73 1.884.451.478 1.111.787 1.8.787.168 0 .294-.027.464-.057.154-.027.281-.055.435-.112.183.449.534.816.928 1.082.379.268.857.422 1.35.422.52 0 .983-.154 1.391-.422.394-.266.688-.633.914-1.082.126.057.294.085.435.112.141.03.294.057.45.057.717 0 1.335-.309 1.799-.787.463-.478.745-1.138.758-1.884-.013-.027-.013-.056 0-.083 0-.029 0-.057-.013-.085-.015-.027-.015-.056 0-.085 0-.027-.015-.055-.028-.084.408-.224.717-.561.955-.97.225-.393.338-.857.351-1.363-.013-.52-.126-1.012-.394-1.432" fill="#000"/><g fill="#fff"><path d="m14.9999 8.3226c-.014-.521-.126-1.012-.394-1.433-.266-.422-.603-.746-1.054-.957.043-.069.071-.154.085-.225l.042-.239.042-.238c0-.07 0-.155.014-.238-.014-.732-.295-1.393-.759-1.884-.463-.492-1.081-.788-1.799-.788-.155 0-.309.013-.449.043-.141.028-.309.069-.435.126-.227-.436-.52-.816-.915-1.081-.407-.268-.871-.409-1.391-.409-.492 0-.97.141-1.349.409-.394.265-.745.645-.928 1.081-.154-.057-.282-.098-.436-.126-.169-.03-.295-.043-.463-.043-.689 0-1.35.296-1.8.788-.449.491-.745 1.152-.73 1.884-.015.083-.015.168 0 .238.014.085.014.168.028.238.014.085.027.169.055.239l.057.225c-.408.211-.788.535-1.026.957-.239.421-.408.912-.394 1.433-.014.506.127.969.352 1.363.225.408.576.745.928.97.014.029.014.056 0 .084-.015.028-.015.057 0 .085v.085c-.015.027-.015.055 0 .083-.015.746.281 1.406.73 1.883.45.479 1.111.788 1.8.788.168 0 .294-.028.463-.057.154-.027.282-.056.436-.112.183.449.534.815.928 1.082.379.267.857.421 1.349.421.52 0 .984-.154 1.391-.421.395-.267.688-.633.915-1.082.126.056.294.085.435.112.14.029.294.057.449.057.718 0 1.336-.309 1.799-.788.464-.477.745-1.137.759-1.883-.014-.028-.014-.056 0-.083 0-.03 0-.058-.014-.085-.014-.028-.014-.057 0-.085 0-.028-.014-.055-.028-.084.408-.225.717-.562.956-.97.225-.394.337-.857.351-1.363zm-1.305 5.249c-.671.692-1.552 1.092-2.518 1.092-.144 0-.276-.012-.419-.035-.234.305-.509.566-.831.784-.583.382-1.237.585-1.94.585-.692 0-1.374-.214-1.91-.593-.325-.22-.613-.481-.847-.776-.018.003-.034.005-.05.008-.125.018-.242.027-.369.027-.953 0-1.879-.414-2.528-1.102-.611-.648-.974-1.497-1.001-2.408-.321-.28-.599-.612-.798-.973-.327-.574-.501-1.217-.482-1.832-.019-.678.174-1.336.522-1.952.199-.351.465-.659.778-.918-.006-.064-.007-.076-.006-.074-.029-.157-.034-.319-.016-.479.004-.93.369-1.81.993-2.493.644-.703 1.574-1.112 2.538-1.112.151 0 .283.009.429.027.233-.292.513-.549.821-.757.548-.387 1.227-.591 1.926-.591.709 0 1.364.194 1.952.58.309.209.577.466.81.767.139-.017.283-.026.428-.026.978 0 1.864.397 2.527 1.101.643.683 1.012 1.586 1.031 2.551l-.013.184c0-.003-.001.016-.001.074l-.015.172-.013.077c.291.242.542.534.758.874.358.564.53 1.217.549 1.996-.019.675-.176 1.295-.482 1.831-.222.379-.48.698-.783.961-.056.94-.421 1.793-1.04 2.43z"/><path d="m11.2896 6.6221c.112-.154.211-.338.211-.521-.014-.168-.071-.365-.225-.492-.126-.154-.323-.211-.492-.211-.183 0-.394.057-.506.211l-3.387 3.373-1.167-1.18c-.154-.126-.309-.211-.506-.211-.196 0-.351.085-.52.211-.113.155-.211.323-.196.507 0 .182.056.379.211.505l1.671 1.687c.071.069.142.112.24.154.099.043.168.057.281.057.07 0 .182-.014.267-.057.085-.042.169-.085.225-.154h.014c-.014 0-.014 0 0 0l3.865-3.879z"/></g></g></svg>
